X:1
T:Marsch - WoO 29
T:Marsch - WoO 29
T:per 2 Clarinetti, 2 Corni e 2 Fagotti
T:Ludwig van Beethoven
T:Pubblico dominio
C:Ludwig van Beethoven
Z:Pubblico dominio
%%score [ ( 1 2 ) ( 3 4 ) ( 5 6 ) ]
L:1/8
Q:1/4=127
M:4/4
K:Bb
V:1 treble transpose=-2 nm="Clarinetti in B."
V:2 treble transpose=-2 
V:3 treble transpose=-2 nm="Corni in B."
V:4 treble transpose=-2 
V:5 bass nm="Fagotti."
V:6 bass 
V:1
[K:C] G>G | [Ec]2 [Ec]>[Ec] [FB]2 [FB]>[FB] |{d} c>Bc>d [ce]>[Bd][ce]>[df] | %3
 [eg]4 [fa][eg][df][ce] | [Bd]2 [Bd]2 [Bd]2 A>A | [Fd]2 [Fd]>[Fd] [E^c]2 [Ec]>[Ec] | %6
{e} d>^cd>e f4- | feBd c2 B2 | [Ec]2 [Ec]2 [Ec]2 :: [Gg]>[Gg] | G3 A/c/ cd [ce][df] | %11
{[ce]} [Bd]2 [Bd]2 [Bd]2 [Gg]>[Gg] | G3 A/c/ cd [ce][df] |{[ce]} [Bd]2 [Bd]2 [Bd]2 A>A | %14
 [Ec]2 [Ec]>[Ec] [EB]2 A>A | [Fd]2 [Fd]>[Fd] [E^c]2 =c>c | [fa]2 [fa]>[fa] [fa][eg][df][^ce] | %17
 gfed c2 [Cc]>[Cc] | [Aa]4 [^F^f]4 | [Gg]4 [Ee]4 | [=F=f]2 [Dd]2 [Gg]2 [G,G]2 | %21
 [Cc]2 [Cc]2 [Cc]2 :| %22
V:2
[K:C] z2 | x8 | E2 z2 x4 | x8 | x6 z2 | x8 | F2 z2 z2 B2 | c2 F2 E>GF>D | x6 :: x2 | G4- GB x2 | %11
 x8 | G4- GB x2 | x6 A>A | x6 A>A | x6 c>c | x8 | d2 B2 E2 x2 | x8 | x8 | x8 | x6 :| %22
V:3
[K:C] z2 | [Gg]2 [Gg]>[Gg] [Gg]2 [Gg]>[Gg] | [Gg]2 z2 z4 | z2 c2 c2 c2 | [Gg]2 [Gg]2 [Gg]2 z2 | %5
 z8 | z4 z2 [Gg]2- | [Gg]2 [df]2 [ce]2 [Gd]2 | [Ec]2 [Ec]2 [Ec]2 :: [Gg]>[Gg] | g8- | %11
 [Gg][Gg][Gg][Gg] [Gg][Gg] [Ee][Cc] | g8- | [Gg][Gg][Gg][Gg] [Gg]4 | [Gg]2 [Gg]>[Gg] [Gg]2 z2 | %15
 z4 z2 [cc']>[cc'] | [cc']2 [cc']>[cc'] [cc']2 a2 | [df]2 [Gd]2 c2 [Cc]>[Cc] | [Cc]2 [Cc]4 [Cc]2- | %19
 [Cc]2 [Cc]4 [Cc]2 | [df]2 [df]2 [Gd]2 [Gd]2 | [Ec]2 [Ec]2 [Ec]2 :| %22
V:4
[K:C] x2 | x8 | x8 | x2 c2 c2 c2 | x8 | x8 | x8 | x8 | x6 :: x2 | G8- | x8 | G8- | x8 | x8 | x8 | %16
 x6 z2 | x4 E2 x2 | x8 | x8 | x8 | x6 :| %22
V:5
 z2 | [B,,B,]2 [B,,B,]>[B,,B,] [F,,C]2 [F,,C]>[F,,C] | [B,,B,]2 z2 z4 | %3
 z2 [B,,B,]2 [E,E]2 [=E,=E]2 | [F,F]2 [F,,F,]2 [F,,F,]2 z2 | %5
 [C,G,]2 [C,G,]>[C,G,] [G,,G,]2 [G,,G,]>[G,,G,] | [C,G,]2 C>D E4- | EDG,C B,2 F,2 | %8
 [B,,B,]2 [B,,B,]2 [B,,B,]2 :: z2 | [F,F]2 [E,E]2 [D,D]2 [B,,B,]2 | [F,,F,]2 [F,,F,]2 [F,,F,]2 z2 | %12
 [F,F]2 [E,E]2 [D,D]2 [D,B,]2 | [F,,F,]2 [F,,F,]2 [F,,F,]2 z2 | %14
 [C,G,]2 [C,G,]>[C,G,] [G,,G,]2 G,>G, | [C,G,]2 [C,G,]>[C,G,] [G,,G,]2 B,>B, | %16
 [E,E]2 [E,E]>[E,E] [B,,B,]2 G2- | G2 FE D2 B,,>B,, | [G,,G,]4 [=E,,=E,]4 | [F,,F,]4 [D,,D,]4 | %20
 [_E,,_E,]2 [C,,C,]2 [F,,F,]2 [F,,F,]2 | [B,,,B,,]2 [B,,,B,,]2 [B,,,B,,]2 :| %22
V:6
 x2 | x8 | x8 | x8 | x8 | x8 | x2 z2 z2 C,2 | D,2 E,2 F,2 F,,2 | x6 :: x2 | x8 | x8 | x8 | x8 | %14
 x6 z2 | x6 B,>B, | x6 G,2 | E,2 F,2 B,,2 B,,>B,, | x8 | x8 | x8 | x6 :| %22

